packages/calcite-ui-icons/icons/collapse-entities-16.svg

<?xml version="1.0" encoding="UTF-8"?><svg id="icons" xmlns="http://www.w3.org/2000/svg" viewBox="0 0 16 16"><defs><style>.cls-1{fill:none;}</style></defs><path d="M2,2.5c0-.82715.67285-1.5,1.5-1.5s1.5.67285,1.5,1.5-.67285,1.5-1.5,1.5-1.5-.67285-1.5-1.5ZM1.5,9c-.82715,0-1.5-.67285-1.5-1.5s.67285-1.5,1.5-1.5,1.5.67285,1.5,1.5-.67285,1.5-1.5,1.5ZM2,7h-1v1h1v-1ZM15.99,7.5c0,1.37891-1.11109,2.5-2.49,2.5s-2.5-1.12109-2.5-2.5,1.12109-2.5,2.5-2.5,2.49,1.12109,2.49,2.5ZM15,7.5c0-.82715-.67285-1.5-1.5-1.5s-1.5.67285-1.5,1.5.67285,1.5,1.5,1.5,1.5-.67285,1.5-1.5ZM8,7h-4v1h4l-.00006,1,2-1.50006-1.99988-1.5-.00006,1.00006ZM3.5,11c-.82715,0-1.5.67285-1.5,1.5s.67285,1.5,1.5,1.5,1.5-.67285,1.5-1.5-.67285-1.5-1.5-1.5Z"/><rect class="cls-1" width="16" height="16"/></svg>

<svg xmlns="http://www.w3.org/2000/svg" viewBox="0 0 16 16"><path d="M2 2.5C2 1.673 2.673 1 3.5 1S5 1.673 5 2.5 4.327 4 3.5 4 2 3.327 2 2.5zM1.5 9C.673 9 0 8.327 0 7.5S.673 6 1.5 6 3 6.673 3 7.5 2.327 9 1.5 9zM2 7H1v1h1V7zm13.99.5a2.494 2.494 0 1 1-4.99 0C11 6.121 12.121 5 13.5 5s2.49 1.121 2.49 2.5zm-.99 0c0-.827-.673-1.5-1.5-1.5S12 6.673 12 7.5 12.673 9 13.5 9 15 8.327 15 7.5zM8 7H4v1h4v1l2-1.5L8 6v1zm-4.5 4c-.827 0-1.5.673-1.5 1.5S2.673 14 3.5 14 5 13.327 5 12.5 4.327 11 3.5 11z"/><path fill="none" d="M0 0h16v16H0z"/></svg>
